X:1
T:On Easter Day the Savior Rose
T:On Easter Day the Savior Rose
T:G. A. Schwedes
T:G. A. Schwedes, 1897
T:Public Domain Courtesy of the Cyber Hymnal™
C:G. A. Schwedes
Z:Public Domain
Z:Courtesy of the Cyber Hymnal™
%%score 1 ( 2 3 )
L:1/8
Q:1/4=98
M:6/8
K:G
V:1 treble 
V:2 bass 
V:3 bass 
V:1
S [B,D] |"^Maestoso. Joyfully." [DB]2 [Ec] [CE]2 [CF] | [B,DG]2 [B,D] [B,D]3 | %3
w: 1.~On|Eas- ter day the|Sav- ior rose,|
w: 2.~The|lit- tle flow- ers|all a- round|
w: 3.~The|birds their grate- ful|songs em- ploy,|
 [CF]2 [CA] [CE]2 [DF] | [B,DG]2 [DFA] [DGB]3 | [DB]2 [Ec]!>(! [CE]2!>)! [CF] | %6
w: Sing a- loud ye|child- ren all.|Ev- ery- where the|
w: Lift their ti- ny|heads a- gain;|Snows are melt- ed|
w: Him they praise, both|great and small;|Ev- ery bird and|
 [B,DG]2 [B,D] [CE]2!f! [Ge] | [GBd]2!>(! [EGc]!>)! [DGB]2 [CFA] | [B,DG]3- [B,DG]2 z!fine! || %9
w: li- ly grows, And|bells to wor- ship|call. *|
w: from the ground, And|life decks hill and|plain. *|
w: flower and leaf— He|giv- eth life to|all. *|
"^Refrain" [GBd]2 [GBd] [GB]2 [Bd] | [Fc]2 [Fc] [FA]3 |"^accel cres." [B,DG]2 [FA] [GB]2 [Ac] | %12
w: |||
w: Hap- py, ho- ly|Eas- ter Day,|Christ is ris’n, the|
w: |||
 [Bd]2 [ce] [DFA]3 | [Ge]2"^Largo" [Ec] [CEA]2 [DB] | [DG]3 [CF]2 [CF] | [EG]2 [FA] [GB]2 [G^c] | %16
w: ||||
w: an- gels say,|Bless- ings with us|al- way, O|hap- py Eas- ter|
w: ||||
 ([DFAd]3 !fermata![DFAc]3)!D.S.! |] %17
w: |
w: Day! *|
w: |
V:2
 z | G,6 | [G,,G,]6 | [D,A,]3 [D,G,C]2 [D,A,] | [G,,G,]6 | G,6 | [G,,G,-]3 [C,G,]2 C, | %7
 [D,B,]3- [D,B,]2 [D,,D,] | [G,,D,G,]3- [G,,D,G,]2 z || B,3 D3 | [D,A,D]6 | [G,,G,]6 | %12
 [G,,G,]3 [D,A,]3 | [C,G,]3 [C,A,]3 | [D,B,]3 [D,A,]2 [D,A,] | ^C,2 D, E,2 E, | %16
 ([D,F,A,]3 !fermata![D,,D,]3) |] %17
V:3
 x | G,,3 C,3 | x6 | x6 | x6 | G,,3 C,3 | x6 | x6 | x6 || G,6 | x6 | x6 | x6 | x6 | x6 | A,,6 | %16
 x6 |] %17

